icon-themes/sifr_svg/cmd/lc_arrowshapes.chevron.svg

<svg viewBox="0 0 24 24" xmlns="http://www.w3.org/2000/svg"><g fill="#555753"><path d="m2 2v1l5.6992188 9-5.6992188 9v1h14.488281l6.511719-10-6.511719-10zm2.7910156 2h10.7324224l5.175781 8-5.175781 8h-10.7324224l5.2089844-8z"/><path d="m4 4v1.3339844l5 6.6660156-5 6.666016v1.333984h12l6-8-6-8z" opacity=".35"/></g></svg>

<svg viewBox="0 0 24 24" xmlns="http://www.w3.org/2000/svg">
  <path
     style="fill:#555753"
     d="M 2,2 V 3 L 7.6992188,12 2,21 v 1 H 16.488281 L 23,12 16.488281,2 Z M 4.7910156,4 H 15.523438 l 5.175781,8 -5.175781,8 H 4.7910156 L 10,12 Z"
     />
  <path
     style="opacity:0.35;fill:#555753"
     d="M 4 4 L 4 5.3339844 L 9 12 L 4 18.666016 L 4 20 L 16 20 L 22 12 L 16 4 L 4 4 z "
     />
</svg>
